X:1
T:Newfoundland, 10.7.10 D
T:Daniel Webster Crist, 1892
T:Newfoundland, 10.7.10 D
T:Public Domain
C:Daniel Webster Crist, 1892
Z:Public Domain
%%score 1 ( 2 3 )
L:1/8
M:4/4
K:Db
V:1 treble 
V:2 bass 
V:3 bass 
V:1
 [FA][EG] | [DF]2 [DF]2 [DF]2 [EG][DF] | [DF]2 [CE]2 [CE]2 [CE][DF] | [EG]2 [EG]2 [GB]2 [FA]2 | %4
 [DF]6 [DF][EG] | [FA]2 [FA]2 [FA]2 [Fd][Ac] | [GB]2 [GB]2 [GB]2 [Ge][Gd] | %7
 [Gc]2 [Gc]2 [GB]2 [Gc]2 | [Fd]6 [Fd][Fd] | [Ge]2 [Ge]2 [Ge]2 [Af][Ge] | %10
 [Fd]2 [GB]2 [FA]2 [FA][FA] | [GB]3 [Ac] [Bd]2 [GB]2 | [FA]6 [Fd][Fd] | %13
 [Ge]2 [Ge]2 [Ge]2 [Af][Ge] | [Fd]2 [GB]2 [FA]2 [FA][FA] | [GB]2 [Ge]2 [Fd]2 [Gc]2 | [Fd]6 |] %17
V:2
 [D,A,][D,A,] | [D,A,]2 [D,A,]2 [D,A,]2 [C,A,][D,A,] | [A,,A,]2 [A,,A,]2 [A,,A,]2 [A,,A,][A,,A,] | %3
 [A,,A,]2 [A,,A,]2 [A,,A,]2 [A,,A,]2 | [D,A,]6 [D,A,][D,A,] | [D,D]2 [D,D]2 [D,D]2 [D,A,][F,D] | %6
 [G,D]2 [G,D]2 [G,D]2 [G,B,][G,B,] | A,2 A,2 [A,,A,]2 [A,,A,]2 | [D,A,]6 [D,A,][D,D] | %9
 [A,C]2 [A,C]2 [A,C]2 [A,D][A,C] | [D,D]2 [D,D]2 [D,D]2 [D,D][D,D] | [G,D]3 [G,D] [G,D]2 [G,D]2 | %12
 [D,D]6 [D,A,][D,D] | [A,C]2 [A,C]2 [A,C]2 [A,C][A,C] | [D,D]2 [D,D]2 [D,D]2 [D,D][D,D] | %15
 [G,D]2 [G,B,]2 A,2 [A,,A,]2 | [D,A,]6 |] %17
V:3
 x2 | x8 | x8 | x8 | x8 | x8 | x8 | A,2 A,2 x4 | x8 | x8 | x8 | x8 | x8 | x8 | x8 | x4 A,2 x2 | %16
 x6 |] %17

